X: 1564
T: Devil's Dream., The
T: aisling an dia.bail.
R:Hornpipe
B:O'Neill's 1564
M:C|
K:A
e2|eaga eaga|eaga fedc|dfBf dfBf|dfBf gfed|
eaga eaga|eaga fedc|dfed cABG|E2 A2 A2:|
e2| ceAe ceAe|ceAe fedc|dfBf dfBf|dfBf afed|
ceAe ceAe|ceAe fedc|dfed cABG|E2 A2 A2:|
e2|cAFA CAeA|cAEA fedc|dBGB dBfe|defg agfe|
cAFA cAeA|cAce fedc|dfed cABG|E2 A2 A2:|


